devices/16/video-display.svg

<?xml version="1.0" encoding="UTF-8" standalone="no"?>
<!-- Created with Inkscape (http://www.inkscape.org/) -->

<svg
   xmlns:dc="http://purl.org/dc/elements/1.1/"
   xmlns:cc="http://creativecommons.org/ns#"
   xmlns:rdf="http://www.w3.org/1999/02/22-rdf-syntax-ns#"
   xmlns:svg="http://www.w3.org/2000/svg"
   xmlns="http://www.w3.org/2000/svg"
   xmlns:xlink="http://www.w3.org/1999/xlink"
   xmlns:inkscape="http://www.inkscape.org/namespaces/inkscape"
   version="1.0"
   width="16"
   height="16"
   id="svg4569">
  <metadata
     id="metadata42">
    <rdf:RDF>
      <cc:Work
         rdf:about="">
        <dc:format>image/svg+xml</dc:format>
        <dc:type
           rdf:resource="http://purl.org/dc/dcmitype/StillImage" />
      </cc:Work>
    </rdf:RDF>
  </metadata>
  <defs
     id="defs4571">
    <linearGradient
       id="linearGradient3924">
      <stop
         id="stop3926"
         style="stop-color:#464646;stop-opacity:1"
         offset="0" />
      <stop
         id="stop3928"
         style="stop-color:#8c8c8c;stop-opacity:1"
         offset="0.35046947" />
      <stop
         id="stop3930"
         style="stop-color:#969696;stop-opacity:1"
         offset="0.50989443" />
      <stop
         id="stop3932"
         style="stop-color:#aaaaaa;stop-opacity:1"
         offset="0.61998242" />
      <stop
         id="stop3934"
         style="stop-color:#646464;stop-opacity:1"
         offset="1" />
    </linearGradient>
    <linearGradient
       id="linearGradient3912">
      <stop
         id="stop3914"
         style="stop-color:#787878;stop-opacity:1"
         offset="0" />
      <stop
         id="stop3916"
         style="stop-color:#bebebe;stop-opacity:1"
         offset="0.35046947" />
      <stop
         id="stop3918"
         style="stop-color:#c8c8c8;stop-opacity:1"
         offset="0.49417919" />
      <stop
         id="stop3920"
         style="stop-color:#e6e6e6;stop-opacity:1"
         offset="0.58907253" />
      <stop
         id="stop3922"
         style="stop-color:#8c8c8c;stop-opacity:1"
         offset="1" />
    </linearGradient>
    <linearGradient
       id="linearGradient6592-2-7">
      <stop
         id="stop6594-0-2"
         style="stop-color:#ffffff;stop-opacity:0.27450982"
         offset="0" />
      <stop
         id="stop6596-2-5"
         style="stop-color:#ffffff;stop-opacity:0"
         offset="1" />
    </linearGradient>
    <linearGradient
       id="linearGradient3342">
      <stop
         id="stop3344"
         style="stop-color:#ffffff;stop-opacity:0"
         offset="0" />
      <stop
         id="stop3346"
         style="stop-color:#ffffff;stop-opacity:1"
         offset="1" />
    </linearGradient>
    <linearGradient
       id="linearGradient10691-1">
      <stop
         id="stop10693-3"
         style="stop-color:#000000;stop-opacity:1"
         offset="0" />
      <stop
         id="stop10695-1"
         style="stop-color:#000000;stop-opacity:0"
         offset="1" />
    </linearGradient>
    <linearGradient
       id="linearGradient6712">
      <stop
         id="stop6714"
         style="stop-color:#3c3c3c;stop-opacity:1"
         offset="0" />
      <stop
         id="stop6716"
         style="stop-color:#1e1e1e;stop-opacity:1"
         offset="1" />
    </linearGradient>
    <linearGradient
       x1="12.9375"
       y1="8.4375"
       x2="15.25"
       y2="19.8125"
       id="linearGradient2441"
       xlink:href="#linearGradient6592-2-7"
       gradientUnits="userSpaceOnUse"
       gradientTransform="matrix(0.3333334,0,0,0.4666664,0,-0.3999992)" />
    <linearGradient
       x1="15.573899"
       y1="46.971004"
       x2="23.578077"
       y2="46.971004"
       id="linearGradient2448"
       xlink:href="#linearGradient3342"
       gradientUnits="userSpaceOnUse"
       gradientTransform="matrix(0.372549,0,0,0.3333333,-0.7839889,-1.1570001)"
       spreadMethod="reflect" />
    <linearGradient
       x1="361.10583"
       y1="87.050117"
       x2="361.10583"
       y2="94.396416"
       id="linearGradient2451"
       xlink:href="#linearGradient3912"
       gradientUnits="userSpaceOnUse"
       gradientTransform="matrix(0.3671886,0,0,0.4851158,-123.51526,-30.342164)" />
    <linearGradient
       x1="61.968769"
       y1="35.944077"
       x2="61.968769"
       y2="43.378311"
       id="linearGradient2453"
       xlink:href="#linearGradient3924"
       gradientUnits="userSpaceOnUse"
       gradientTransform="matrix(0.3685119,0,0,0.4850461,-14.847737,-5.598644)" />
    <radialGradient
       cx="6.702713"
       cy="73.615715"
       r="7.228416"
       fx="6.702713"
       fy="73.615715"
       id="radialGradient2456"
       xlink:href="#linearGradient10691-1"
       gradientUnits="userSpaceOnUse"
       gradientTransform="matrix(0.6456002,0,0,0.1383429,3.6727279,4.4824554)" />
    <radialGradient
       cx="12.244348"
       cy="4.8630676"
       r="20.999998"
       fx="12.244348"
       fy="4.8630676"
       id="radialGradient3230"
       xlink:href="#linearGradient6712"
       gradientUnits="userSpaceOnUse"
       gradientTransform="matrix(0.4722544,0.00713968,-0.00439705,0.3991075,-1.7751898,1.2139703)" />
  </defs>
  <path
     d="m 12.666666,14.666666 c 0,0.552285 -2.089337,1 -4.6666662,1 -2.5773284,0 -4.6666659,-0.447715 -4.6666659,-1 0,-0.552285 2.0893375,-1 4.6666659,-1 2.5773292,0 4.6666662,0.447715 4.6666662,1 l 0,0 z"
     inkscape:connector-curvature="0"
     id="path2589"
     style="opacity:0.3;fill:url(#radialGradient2456);fill-opacity:1;fill-rule:nonzero;stroke:none;stroke-width:0.80000001;marker:none;visibility:visible;display:inline;overflow:visible" />
  <path
     d="m 5.737139,11.499138 c 0,0 0.052245,1.828279 -0.208336,2.309651 -0.2605807,0.481371 -0.7790887,0.486985 -0.7790887,0.486985 -0.3327249,0.05057 -0.3354774,1.205089 0,1.205089 l 6.5005457,0 c 0.335478,0 0.332795,-1.155162 0,-1.205089 0,0 -0.518486,-0.0056 -0.779062,-0.486985 -0.260577,-0.481372 -0.208362,-2.309651 -0.208362,-2.309651 l -4.525697,0 0,0 z"
     inkscape:connector-curvature="0"
     id="rect1789"
     style="fill:url(#linearGradient2451);fill-opacity:1;fill-rule:nonzero;stroke:url(#linearGradient2453);stroke-width:0.99827456;stroke-linecap:round;stroke-linejoin:round;stroke-miterlimit:4;stroke-opacity:1;stroke-dasharray:none;stroke-dashoffset:0.50000001;marker:none;visibility:visible;display:inline;overflow:visible;enable-background:new" />
  <path
     d="m 5.2043261,14.499999 5.5913479,0"
     inkscape:connector-curvature="0"
     id="path3340"
     style="fill:none;stroke:url(#linearGradient2448);stroke-width:1px;stroke-linecap:square;stroke-linejoin:miter;stroke-opacity:1" />
  <rect
     width="14.999762"
     height="10.999919"
     rx="0.33332983"
     ry="0.33333331"
     x="0.50011969"
     y="0.49996138"
     id="rect2722"
     style="fill:#1a1a1a;fill-opacity:1;stroke:#000000;stroke-width:1;stroke-linecap:round;stroke-linejoin:round;stroke-miterlimit:4;stroke-opacity:1;stroke-dasharray:none;stroke-dashoffset:0.50000001" />
  <rect
     width="14"
     height="10"
     x="1"
     y="1"
     id="rect2716"
     style="fill:url(#radialGradient3230);fill-opacity:1;fill-rule:evenodd;stroke:none;display:inline;enable-background:new" />
  <path
     d="M 1,1 15,1 15,4.7333352 1,8 1,1 z"
     inkscape:connector-curvature="0"
     id="rect6588"
     style="fill:url(#linearGradient2441);fill-opacity:1;stroke:none" />
</svg>

<?xml version="1.0" encoding="UTF-8" standalone="no"?>
<!-- Created with Inkscape (http://www.inkscape.org/) -->
<svg
   xmlns:svg="http://www.w3.org/2000/svg"
   xmlns="http://www.w3.org/2000/svg"
   xmlns:xlink="http://www.w3.org/1999/xlink"
   version="1.0"
   width="16"
   height="16"
   id="svg4569">
  <defs
     id="defs4571">
    <linearGradient
       id="linearGradient3924">
      <stop
         id="stop3926"
         style="stop-color:#464646;stop-opacity:1"
         offset="0" />
      <stop
         id="stop3928"
         style="stop-color:#8c8c8c;stop-opacity:1"
         offset="0.35046947" />
      <stop
         id="stop3930"
         style="stop-color:#969696;stop-opacity:1"
         offset="0.50989443" />
      <stop
         id="stop3932"
         style="stop-color:#aaaaaa;stop-opacity:1"
         offset="0.61998242" />
      <stop
         id="stop3934"
         style="stop-color:#646464;stop-opacity:1"
         offset="1" />
    </linearGradient>
    <linearGradient
       id="linearGradient3912">
      <stop
         id="stop3914"
         style="stop-color:#787878;stop-opacity:1"
         offset="0" />
      <stop
         id="stop3916"
         style="stop-color:#bebebe;stop-opacity:1"
         offset="0.35046947" />
      <stop
         id="stop3918"
         style="stop-color:#c8c8c8;stop-opacity:1"
         offset="0.49417919" />
      <stop
         id="stop3920"
         style="stop-color:#e6e6e6;stop-opacity:1"
         offset="0.58907253" />
      <stop
         id="stop3922"
         style="stop-color:#8c8c8c;stop-opacity:1"
         offset="1" />
    </linearGradient>
    <linearGradient
       id="linearGradient6592-2-7">
      <stop
         id="stop6594-0-2"
         style="stop-color:#ffffff;stop-opacity:0.27450982"
         offset="0" />
      <stop
         id="stop6596-2-5"
         style="stop-color:#ffffff;stop-opacity:0"
         offset="1" />
    </linearGradient>
    <linearGradient
       id="linearGradient3342">
      <stop
         id="stop3344"
         style="stop-color:#ffffff;stop-opacity:0"
         offset="0" />
      <stop
         id="stop3346"
         style="stop-color:#ffffff;stop-opacity:1"
         offset="1" />
    </linearGradient>
    <linearGradient
       id="linearGradient10691-1">
      <stop
         id="stop10693-3"
         style="stop-color:#000000;stop-opacity:1"
         offset="0" />
      <stop
         id="stop10695-1"
         style="stop-color:#000000;stop-opacity:0"
         offset="1" />
    </linearGradient>
    <linearGradient
       id="linearGradient6712">
      <stop
         id="stop6714"
         style="stop-color:#3c3c3c;stop-opacity:1"
         offset="0" />
      <stop
         id="stop6716"
         style="stop-color:#1e1e1e;stop-opacity:1"
         offset="1" />
    </linearGradient>
    <linearGradient
       x1="12.9375"
       y1="8.4375"
       x2="15.25"
       y2="19.8125"
       id="linearGradient2441"
       xlink:href="#linearGradient6592-2-7"
       gradientUnits="userSpaceOnUse"
       gradientTransform="matrix(0.3333334,0,0,0.4666664,0,-0.3999992)" />
    <linearGradient
       x1="15.573899"
       y1="46.971004"
       x2="23.578077"
       y2="46.971004"
       id="linearGradient2448"
       xlink:href="#linearGradient3342"
       gradientUnits="userSpaceOnUse"
       gradientTransform="matrix(0.372549,0,0,0.3333333,-0.7839889,-1.1570001)"
       spreadMethod="reflect" />
    <linearGradient
       x1="361.10583"
       y1="87.050117"
       x2="361.10583"
       y2="94.396416"
       id="linearGradient2451"
       xlink:href="#linearGradient3912"
       gradientUnits="userSpaceOnUse"
       gradientTransform="matrix(0.3671886,0,0,0.4851158,-123.51526,-30.342164)" />
    <linearGradient
       x1="61.968769"
       y1="35.944077"
       x2="61.968769"
       y2="43.378311"
       id="linearGradient2453"
       xlink:href="#linearGradient3924"
       gradientUnits="userSpaceOnUse"
       gradientTransform="matrix(0.3685119,0,0,0.4850461,-14.847737,-5.598644)" />
    <radialGradient
       cx="6.702713"
       cy="73.615715"
       r="7.228416"
       fx="6.702713"
       fy="73.615715"
       id="radialGradient2456"
       xlink:href="#linearGradient10691-1"
       gradientUnits="userSpaceOnUse"
       gradientTransform="matrix(0.6456002,0,0,0.1383429,3.6727279,4.4824554)" />
    <radialGradient
       cx="12.244348"
       cy="4.8630676"
       r="20.999998"
       fx="12.244348"
       fy="4.8630676"
       id="radialGradient3230"
       xlink:href="#linearGradient6712"
       gradientUnits="userSpaceOnUse"
       gradientTransform="matrix(0.4722544,7.1396824e-3,-4.3970464e-3,0.3991075,-1.7751898,1.2139703)" />
  </defs>
  <path
     d="M 12.666666,14.666666 C 12.666666,15.218951 10.577329,15.666666 7.9999998,15.666666 C 5.4226714,15.666666 3.3333339,15.218951 3.3333339,14.666666 C 3.3333339,14.114381 5.4226714,13.666666 7.9999998,13.666666 C 10.577329,13.666666 12.666666,14.114381 12.666666,14.666666 L 12.666666,14.666666 z"
     id="path2589"
     style="opacity:0.3;fill:url(#radialGradient2456);fill-opacity:1;fill-rule:nonzero;stroke:none;stroke-width:0.80000001;marker:none;visibility:visible;display:inline;overflow:visible" />
  <path
     d="M 5.737139,11.499138 C 5.737139,11.499138 5.7893837,13.327417 5.528803,13.808789 C 5.2682223,14.29016 4.7497143,14.295774 4.7497143,14.295774 C 4.4169894,14.346346 4.4142369,15.500863 4.7497143,15.500863 L 11.25026,15.500863 C 11.585738,15.500863 11.583055,14.345701 11.25026,14.295774 C 11.25026,14.295774 10.731774,14.290157 10.471198,13.808789 C 10.210621,13.327417 10.262836,11.499138 10.262836,11.499138 L 5.737139,11.499138 L 5.737139,11.499138 z"
     id="rect1789"
     style="fill:url(#linearGradient2451);fill-opacity:1;fill-rule:nonzero;stroke:url(#linearGradient2453);stroke-width:0.99827456;stroke-linecap:round;stroke-linejoin:round;marker:none;stroke-miterlimit:4;stroke-dasharray:none;stroke-dashoffset:0.50000001;stroke-opacity:1;visibility:visible;display:inline;overflow:visible;enable-background:new" />
  <path
     d="M 5.2043261,14.499999 L 10.795674,14.499999"
     id="path3340"
     style="fill:none;stroke:url(#linearGradient2448);stroke-width:1px;stroke-linecap:square;stroke-linejoin:miter;stroke-opacity:1" />
  <rect
     width="14.999762"
     height="10.999919"
     rx="0.33332983"
     ry="0.33333331"
     x="0.50011969"
     y="0.49996138"
     id="rect2722"
     style="fill:#1a1a1a;fill-opacity:1;stroke:#000000;stroke-width:1;stroke-linecap:round;stroke-linejoin:round;stroke-miterlimit:4;stroke-dasharray:none;stroke-dashoffset:0.50000001;stroke-opacity:1" />
  <rect
     width="14"
     height="10"
     x="1"
     y="1"
     id="rect2716"
     style="fill:url(#radialGradient3230);fill-opacity:1;fill-rule:evenodd;stroke:none;display:inline;enable-background:new" />
  <path
     d="M 1,1 L 15,1 L 15,4.7333352 L 1,8 L 1,1 z"
     id="rect6588"
     style="fill:url(#linearGradient2441);fill-opacity:1;stroke:none" />
</svg>
